X: 36766
T: Shephard's Daughter
R: reel
M: 4/4
K: Ddorian
A2GE DEDC|A,D~D2 DEFG|A2GE DEDC|A,CCB, C2EG|
A/c/AGE DEDC|A,D~D2 DEFG|A/c/AGE DEDC|A,CCB, C4||
A3c AGEG|AD~D2 EDEG|A3c AGED|(3E^FG AB c2Bc|
A3c AGEG|AD~D2 EDEG|A3c AGED|(3E^FG AB c4||

